X:18448
T:Waltz,A. JMT.016
M:3/8
L:1/8
Q:30
S:J.Moore,Tyneside,1841.(11a)
R:Waltz
O:England
A:Northumbria
H:184
Z:vmp.John Adams
K:G
D | GG (3B/A/F/) | G/B/ d B/G/ | F/A/ c A/F/ | G/B/ DD |!
 GG (3B/A/F/) |  G/B/ d B/G/ | F/A/ c A/F/ | G2:|!
|:G | (F/A/c/)A/F/A/| (G/B/d/)B/G/B/ | (F/A/c/)A/F/A/| .G/.A/.B/.c/d |!
(F/A/c/)A/F/A/| (G/B/d/)B/G/B/|(F/A/c/)A/F/A/| G2  :|]


